X:133
T: Reuzelied
N: A0500
O: Europa, Mitteleuropa, Deutschland
N: 14. Jh.
R: Romanze, Ballade, Lied
M: 3/4
L: 1/4
K: C
C2E | G2G | A2A | G2G | A2A | G2
G | FED | E2G | F2D | E2F | E2D | C2
C | E2F | G3 | FED | E3

